svg/600/sharp/format_ink_highlighter.svg

<svg xmlns="http://www.w3.org/2000/svg" width="48" height="48" viewBox="0 -960 960 960"><path d="M80 0v-134.001h800V0H80Zm508.913-487.566-56.304-56.435-56.435-56.304-162.781 162.782 113.304 112.739 162.216-162.782Zm-55.607-170.435 55.869 57.434 57.435 55.87 161.694-161.694-112.739-113.305-162.259 161.695Zm-386.697 418 125.087-124.522-44.217-44.217v-56.132l220.347-220.347 226.567 226.001L454.48-239.305h-57.131l-47.653-48.218-48.087 47.522h-155Zm301.217-445.218L698-935.393l225.436 226.002-249.043 250.173-226.567-226.001Z"/></svg>

<svg xmlns="http://www.w3.org/2000/svg" width="48" height="48" viewBox="0 -960 960 960"><path d="M80 0v-134h800V0H80Zm508.91-487.57L532.61-544l-56.44-56.3-162.78 162.78L426.7-324.78l162.21-162.79ZM533.31-658l55.87 57.43 57.43 55.87L808.3-706.39 695.57-819.7 533.31-658Zm-386.7 418L271.7-364.52l-44.22-44.22v-56.13l220.35-220.35 226.56 226L454.48-239.3h-57.13l-47.65-48.22L301.61-240h-155Zm301.22-445.22L698-935.39l225.44 226-249.05 250.17-226.56-226Z"/></svg>
